X: 17360
T: High Hills Of Larghey, The
R: reel
M: 4/4
K: Dmajor
d2fe dBAF|GABG FAEF|DEFA dfaf|gefd eB~B2|
d2fe dBAF|GABG FAEF|DEFA df~f2p|1 gece d2zA:|2 gece d2fg||
abag fdAF|GABG FAEF|DEFA dfaf|gefd eAce|
a2ag fdAF|GABG FAEF|DEFA df~f2|gece d2zfg|
abag fdAF|GABG FAEF|DEFA GB~B2|Aa~a3 gecA|
da~a2 gecA|d2AF GFEF|DEFA dfaf|gece d2fg||

